X:1
T:Title
%%score { ( 1 3 ) | ( 2 4 ) }
L:1/8
M:4/4
K:G
V:1 treble nm="Grand Piano"
V:3 treble 
V:2 treble 
V:4 treble 
V:1
 z4 z2[Q:1/4=100] (3DEG | z2 G2 Gded | z d3- d2 z2 | G6 z2 |[M:3/4] B6 |[M:1/4] (3DEG | %6
[M:4/4] z2 G2 Gded | z d3- d2 z2 | B6 z2 |[M:3/4] [G,G]2- [G,-EG-][G,-EG-] [G,DG]2 | %10
[M:1/4] (3d^cd |[M:4/4] B6 z2 |[M:3/4] z d- d4 |[M:1/4] z2 |[M:4/4] B6 z2 |[M:3/4] A6 | %16
[M:1/4] (3DEG |[M:4/4] z2 G2 Gded | z d3- d2 z2 | B6 z2 | %20
[M:7/4] [G,G]2- [G,-EG-][G,-EG-] [G,DG]2 z2 z2 z4 |] %21
V:2
 z8 | [G,DG]2 [G,D]2 [G,D][G,B,G][G,CG][G,B,G] | [G,D][G,B,G][K:bass][D,A,][D,C] [G,B,][G,B,] z2 | %3
 [G,B,D]2 [G,B,]2 [G,B,][D,C][E,B,][F,D] |[M:3/4] [G,D]2 [D,D]B,, G,,2 |[M:1/4] z2 | %6
[M:4/4][K:treble] [G,DG]2 [G,D]2 [G,D][G,B,G][G,CG][G,B,G] | %7
 [G,D][G,B,G][K:bass][D,A,][D,C] [G,B,][G,B,] z2 | E,2 E,2 E,B,,D,D, |[M:3/4] z2 CC B,2 | %10
[M:1/4] z2 |[M:4/4][K:treble] [G,DG]2 [G,D]2[K:bass] [G,D]D,E,D, |[M:3/4] G,G, D,D, G,G, | %13
[M:1/4][K:treble] (3d^cd |[M:4/4][K:bass] E,2 E,2 A,,A,,A,,[A,,G,] | %15
[M:3/4] [D,F,D]2 [D,F,][E,G,] [F,A,]2 |[M:1/4] z2 | %17
[M:4/4][K:treble] [G,DG]2 [G,D]2 [G,D][G,B,G][G,CG][G,B,G] | %18
 [G,D][G,B,G][K:bass][D,A,][D,C] [G,B,][G,B,] z2 | E,2 E,2 E,B,,D,D, |[M:7/4] z2 CC B,2 z2 z2 z4 |] %21
V:3
 x8 | B6 z2 | .B2 FA GG (3B_B=B | z2 D2 D[FA]GA |[M:3/4] z2 G[DG] [DG]2 |[M:1/4] x2 | %6
[M:4/4] B6 z2 | .B2 FA GGde | [EG]2 [EG]2 [EG][DG][CFA][DGB] |[M:3/4] B,2 z2 z2 |[M:1/4] x2 | %11
[M:4/4] z2 G2 G[CFA][B,G][DFA] |[M:3/4] [DGB][DB] [CA][CA] [B,G][B,G] |[M:1/4] x2 | %14
[M:4/4] [EG]2 [EG]2 [EG][^CEA][A,CE][CB] |[M:3/4] z2 D^C D2 |[M:1/4] x2 |[M:4/4] B6 z2 | %18
 .B2 FA GGde | [EG]2 [EG]2 [EG][DG][CFA][DGB] |[M:7/4] B,2 z2 z2 z2 z2 z4 |] %21
V:4
 x8 | x8 | x2[K:bass] x6 | x8 |[M:3/4] x6 |[M:1/4] x2 |[M:4/4][K:treble] x8 | x2[K:bass] x6 | x8 | %9
[M:3/4] G,,6 |[M:1/4] x2 |[M:4/4][K:treble] x4[K:bass] x4 |[M:3/4] x6 |[M:1/4][K:treble] x2 | %14
[M:4/4][K:bass] x8 |[M:3/4] x6 |[M:1/4] x2 |[M:4/4][K:treble] x8 | x2[K:bass] x6 | x8 | %20
[M:7/4] G,,6 z2 z2 z4 |] %21

